brandFactory_export/2.Regular/Sol _2Regular.svg

<?xml version="1.0" encoding="UTF-8"?>
<svg width="24px" height="24px" viewBox="0 0 24 24" version="1.1" xmlns="http://www.w3.org/2000/svg" xmlns:xlink="http://www.w3.org/1999/xlink">
    <title>2.Regular/Sol _2Regular</title>
    <g id="Symbols" stroke="none" stroke-width="1" fill="none" fill-rule="evenodd">
        <g id="2.Regular/Sol-_2Regular" fill="#5CB615" fill-rule="nonzero">
            <path d="M12.1882353,18.5781513 L11.512605,18.5781513 C5.99327731,18.5008403 5.39831933,13.9260504 5.39831933,11.9630252 C5.39831933,10.0134454 5.98655462,5.45882353 11.4420168,5.40840336 L12.1478992,5.40840336 C13.9966387,5.45882353 18.312605,6.19159664 18.312605,12.0134454 C18.312605,17.8352941 14.0302521,18.5378151 12.1882353,18.5781513 M22.8773109,11.0521008 L19.9159664,11.0521008 C19.8554622,11.0521008 19.805042,11.0722689 19.7579832,11.0823529 C19.6,9.07226891 18.9714286,7.62689076 18.1176471,6.58823529 C18.1478992,6.56806723 18.1680672,6.55798319 18.1882353,6.53781513 L20.3159664,4.41680672 C20.6151261,4.1210084 20.6151261,3.65714286 20.3159664,3.36806723 C20.0268908,3.07226891 19.5596639,3.07226891 19.2605042,3.36806723 L17.1327731,5.48571429 C17.112605,5.50588235 17.102521,5.53613445 17.0823529,5.56638655 C15.4823529,4.31932773 13.5731092,4.01344538 12.5579832,3.94285714 L12.5579832,0.773109244 C12.5579832,0.366386555 12.2184874,0.0302521008 11.8117647,0.0302521008 C11.394958,0.0302521008 11.0655462,0.366386555 11.0655462,0.773109244 L11.0655462,3.92941176 C10.0302521,3.98991597 8.1512605,4.27563025 6.57142857,5.50252101 C6.5512605,5.48235294 6.54117647,5.44201681 6.51092437,5.42521008 L4.44369748,3.36470588 C4.15462185,3.06890756 3.67731092,3.06890756 3.38823529,3.36470588 C3.09915966,3.65042017 3.09915966,4.11764706 3.38823529,4.41344538 L5.45546218,6.47394958 C5.48571429,6.49411765 5.51596639,6.50420168 5.54621849,6.53445378 C4.71260504,7.57310924 4.09411765,9.03865546 3.95630252,11.0789916 C3.90588235,11.0689076 3.86554622,11.0487395 3.81848739,11.0487395 L0.746218487,11.0487395 C0.339495798,11.0487395 0,11.3848739 0,11.7915966 C0,12.1983193 0.339495798,12.5344538 0.746218487,12.5344538 L3.81848739,12.5344538 C3.85882353,12.5344538 3.89915966,12.5142857 3.93613445,12.5142857 C4.02689076,14.5647059 4.56134454,16.0705882 5.34789916,17.1563025 C5.32773109,17.1764706 5.29747899,17.1865546 5.26722689,17.2168067 L3.22016807,19.2571429 C2.9210084,19.5529412 2.9210084,20.0201681 3.22016807,20.3058824 C3.35798319,20.4537815 3.54957983,20.5243697 3.74789916,20.5243697 C3.88571429,20.5243697 4.02689076,20.4739496 4.14453782,20.3966387 C4.25546218,20.3563025 4.36302521,20.3058824 4.44369748,20.2184874 L6.32268908,18.3563025 C6.34285714,18.3260504 6.35294118,18.2991597 6.38319328,18.2655462 C7.98319328,19.6403361 9.97310924,19.9697479 11.0655462,20.0369748 L11.0655462,22.907563 C11.0655462,23.3243697 11.394958,23.6504202 11.8117647,23.6504202 C12.2184874,23.6504202 12.5579832,23.3243697 12.5579832,22.907563 L12.5579832,20.0571429 C12.5579832,20.0470588 12.5478992,20.0470588 12.5478992,20.0369748 C13.6033613,19.9798319 15.6705882,19.6605042 17.3310924,18.2554622 C17.3512605,18.2857143 17.3613445,18.3226891 17.3915966,18.3529412 L19.2605042,20.2151261 C19.4084034,20.3630252 19.6,20.4336134 19.7882353,20.4336134 C19.9865546,20.4336134 20.1747899,20.3663866 20.312605,20.2151261 C20.6117647,19.9294118 20.6117647,19.4521008 20.312605,19.1663866 L18.4436975,17.3042017 C18.4033613,17.2638655 18.3529412,17.2436975 18.3058824,17.2134454 C19.1226891,16.1142857 19.697479,14.5882353 19.7781513,12.5008403 C19.8285714,12.5109244 19.8689076,12.5310924 19.9159664,12.5310924 L22.8773109,12.5310924 C23.2840336,12.5310924 23.6235294,12.194958 23.6235294,11.7882353 C23.6235294,11.3882353 23.2840336,11.0521008 22.8773109,11.0521008" id="Sol-_2Regular"></path>
        </g>
    </g>
</svg>

<svg width="24" height="24" viewBox="0 0 24 24" xmlns="http://www.w3.org/2000/svg"><path d="M12.188 18.578h-.675c-5.52-.077-6.115-4.652-6.115-6.615 0-1.95.589-6.504 6.044-6.555h.706c1.849.05 6.165.784 6.165 6.605 0 5.822-4.283 6.525-6.125 6.565m10.69-7.526h-2.962c-.06 0-.111.02-.158.03-.158-2.01-.787-3.455-1.64-4.494.03-.02.05-.03.07-.05l2.128-2.121c.3-.296.3-.76 0-1.049a.739.739 0 00-1.055 0l-2.128 2.118c-.02.02-.03.05-.05.08-1.6-1.247-3.51-1.553-4.525-1.623V.773a.75.75 0 00-.746-.743.744.744 0 00-.746.743V3.93c-1.036.06-2.915.347-4.495 1.574-.02-.02-.03-.061-.06-.078l-2.067-2.06a.739.739 0 00-1.056 0 .743.743 0 000 1.048l2.067 2.06c.03.021.061.031.091.061-.833 1.04-1.452 2.505-1.59 4.545-.05-.01-.09-.03-.138-.03H.746a.75.75 0 00-.746.743c0 .406.34.742.746.742h3.072c.04 0 .081-.02.118-.02.09 2.05.625 3.557 1.412 4.642-.02.02-.05.03-.08.06L3.22 19.258c-.299.296-.299.763 0 1.049a.71.71 0 00.528.218.74.74 0 00.397-.127c.11-.04.218-.091.299-.179l1.879-1.862c.02-.03.03-.057.06-.09 1.6 1.374 3.59 1.704 4.683 1.771v2.87c0 .417.329.743.746.743a.744.744 0 00.746-.742v-2.85c0-.01-.01-.01-.01-.021 1.055-.057 3.123-.376 4.783-1.782.02.03.03.068.06.098l1.87 1.862c.147.148.339.219.527.219a.69.69 0 00.525-.219c.299-.286.299-.763 0-1.049l-1.87-1.862c-.04-.04-.09-.06-.137-.09.817-1.1 1.391-2.626 1.472-4.713.05.01.09.03.138.03h2.961a.75.75 0 00.747-.743c0-.4-.34-.736-.747-.736" fill="#5CB615" fill-rule="nonzero"/></svg>
